X: 3
T: Winnie Hayes'
R: jig
M: 6/8
L: 1/8
K: Edor
|: BAF E2 E | FEE E2 A | BAF E2 E | FDD FGA |BAF ~E3 | FEE E2 e|edB AB/c/d| edB AFE :||: Bcd e2 e | fee efd | ~B3 efg | ef{a}f def |g2 g fgf | edB e2 f | edB ABd | edB AFE :|


Tune 797	Setting 797

